frontend/public/drawercreatorDashboard.svg

<svg width="36" height="36" viewBox="0 0 36 36" fill="none" xmlns="http://www.w3.org/2000/svg">
<g clip-path="url(#clip0_224_552)">
<path d="M33.709 17.29L18.709 2.29C18.5217 2.10375 18.2682 1.99921 18.004 1.99921C17.7399 1.99921 17.4864 2.10375 17.299 2.29L2.29905 17.29C2.13522 17.4813 2.04962 17.7274 2.05934 17.9791C2.06906 18.2307 2.17339 18.4695 2.35149 18.6476C2.52958 18.8257 2.76832 18.93 3.02 18.9397C3.27167 18.9494 3.51775 18.8638 3.70905 18.7L17.999 4.41L32.289 18.71C32.4803 18.8738 32.7264 18.9594 32.9781 18.9497C33.2298 18.94 33.4685 18.8357 33.6466 18.6576C33.8247 18.4795 33.929 18.2407 33.9388 17.9891C33.9485 17.7374 33.8629 17.4913 33.699 17.3L33.709 17.29Z" fill="#FB4A04"/>
<path d="M28 32H23V22H13V32H8V18L6 20V32C6 32.5304 6.21071 33.0392 6.58579 33.4142C6.96086 33.7893 7.46957 34 8 34H15V24H21V34H28C28.5304 34 29.0391 33.7893 29.4142 33.4142C29.7893 33.0392 30 32.5304 30 32V19.76L28 17.76V32Z" fill="#FB4A04"/>
</g>
<defs>
<clipPath id="clip0_224_552">
<rect width="36" height="36" fill="white"/>
</clipPath>
</defs>
</svg>

<?xml version="1.0" encoding="UTF-8"?>
<svg id="Layer_1" data-name="Layer 1" xmlns="http://www.w3.org/2000/svg" width="36" height="36" xmlns:xlink="http://www.w3.org/1999/xlink" viewBox="0 0 36 36">
  <defs>
    <style>
      .cls-1 {
        fill: #eece93;
      }

      .cls-1, .cls-2 {
        stroke-width: 0px;
      }

      .cls-2 {
        fill: none;
      }

      .cls-3 {
        clip-path: url(#clippath);
      }
    </style>
    <clipPath id="clippath">
      <rect class="cls-2" width="36" height="36"/>
    </clipPath>
  </defs>
  <g class="cls-3">
    <g>
      <path class="cls-1" d="M33.71,17.29L18.71,2.29c-.19-.19-.44-.29-.7-.29s-.52.1-.7.29L2.3,17.29c-.16.19-.25.44-.24.69,0,.25.11.49.29.67.18.18.42.28.67.29.25,0,.5-.08.69-.24l14.29-14.29,14.29,14.3c.19.16.44.25.69.24.25,0,.49-.11.67-.29.18-.18.28-.42.29-.67,0-.25-.08-.5-.24-.69h0Z"/>
      <path class="cls-1" d="M28,32h-5v-10h-10v10h-5v-14l-2,2v12c0,.53.21,1.04.59,1.41.38.38.88.59,1.41.59h7v-10h6v10h7c.53,0,1.04-.21,1.41-.59.38-.38.59-.88.59-1.41v-12.24l-2-2v14.24Z"/>
    </g>
  </g>
</svg>
